X: 95
T: Piano Sonata no. 30 in E major, Vivace ma non troppo
C: Ludwig van Beethoven
%%abc-version 2.0
%%abcx-abcm2ps-target-version 5.9.1 (29 Sep 2008)
%%abc-creator hum2abc beta
%%abcx-conversion-date 2021/01/11 11:42:10
%%abc-edited-by Craig Stuart Sapp
%%abcx-initial-encoding-date 2005/08/28/
%%gracespace 0 6 6
%%humdrum-veritas 1994858619
%%humdrum-veritas-data 3145323440
%%linebreak <none>
%%barnumbers 0
L: 1/16
M: 2/4
Q: "Vivace ma non troppo" 1/4=152
%%staves {1 2}
V: 1 clef=treble
V: 2 clef=bass
K: E
[V:1] GB3 & G4 [I:setbarnb 1]| 
[V:2] z2 E,B, | 
[V:1] B4E4 & B2<F2 EG3 | 
[V:2] z2 DD, z2 C,G, | 
[V:1] G4C4 & G2<D2 CE3 | 
[V:2] z2 B,B,, z2 A,,E, | 
[V:1] E4[D4F4] & E2<B,2 A,B,3 | 
[V:2] z2 G,G,, z2 B,,,B,, | 
[V:1] [E4G4]G4 & G,2<B,2 GB3 | 
[V:2] z2 E,E,, z2 E,B, | 
[V:1] B4^Ae3 & B2<F2E4 | 
[V:2] z2 DD, z2 C,F, | 
[V:1] d2<B2B4 & D4Bd3 | 
[V:2] z2 B,B,, z2 F,F | 
[V:1] e2<B2 Gg3 & e4B4 | 
[V:2] z2 GG, z2 E,E | 
[V:1] f4c^a3 & f2<[B2d2]^A4 | 
[V:2] z2 FF, z2 F,,F, | 
[V:1] [M:3/4][=A4^B4d4f4=a4]-[A2B2d2f2a2].g.f [ce][Bd].[ce].[GBf] | 
[V:2] [M:3/4]z2 [^B,D]E[K:clef=treble] .FGA2 [EG]A.GF[K:clef=bass] & z2 [F,2A,2] z2 [B,2D2] CFED | 
[V:1] ^^f2[G2c2e2g2]- [G2c2e2g2]^f.e [Fd][EFc].[DFd].[Be] & z4z2 c2z4 | 
[V:2] z E,- [E,2G,2][K:clef=treble][K:clef=bass]z4[B,D][^A,C].B,.[G,B,E] & z2 CDz4.EF[A,2=G2] | 
[V:1] fBfed4(5:4:5c/d/c/^B/c/ (3:2:6d/e/^e/f/^^f/g/ | 
[V:2] [D,2B,2][G,2B,2] [F,2B,2][F,2B,2D2] [F,2^A,2C2][F,2=A,2^B,2D2] | 
[V:1] a/a'/d'/^b/ a/d/^B/A/ D/^B,/A,/D,/ z2 D//A//B//d// a//b//d'//a'// [gg'][^^f^^f'] | 
[V:2] z2 z2 z2 (3:2:6^B,,/A,,/B,,/D,/A,/^B,/ z2 z2 & [F,,,8F,,8]-[F,,,2F,,2] [^E,,,^E,,][D,,,D,,] | 
[V:1] (3:2:9^^f'/d'/^a/ ^^f/d/^A/ ^^F/D/^A,/ z2 z z F//A//d//f// z f//a//d'//f'// [ff'][^f^f'] | 
[V:2] z2 z (3^^F,/D,/^A,,/ D,,//^^F,,//A,,//D,// F,//^A,//D//^^F// D,//F,//A,//D// z[K:clef=treble] D//F//^A//d// z[K:clef=bass] [D,,-A,,D,][D,,B,,D,] & [D,,,4D,,4]z4z4 | 
[V:1] f'/b/^a/b/ a/b/f'/e'/ d'/^a'/b'/a'/ (3:2:18b'/a'/f'/ a'/g'/e'/ g'/f'/d'/ f'/e'/c'/ e'/d'/b/ d'/c'/a/ | 
[V:2] [D,,B,,D,][D,B,] z [G,B,E] z [F,B,D][K:clef=treble] (3:2:18d'/c'/^a/ c'/b/g/ b/a/f/ a/g/e/ g/f/d/ f/e/c/ | 
[V:1] [M:5/4](3:2:18b/^a/g/f/e/d/ c/B/^A/G/F/E/ D/C/B,/^A,/G,/F,/ z2 z2 (3:2:6B,/C/D/E/F/G/ .A.B.c.d .e.f.g.a | 
[V:2] [M:5/4][Bd][K:clef=bass] .F,.G,.^A, B, z (3:2:12E,/D,/C,/B,,/^A,,/B,,/ C,/D,/E,/F,/G,/A,/ z2z4z4[K:clef=treble] & z4z2 B,,, z z2 z2z4z4 | 
[V:1] [M:2/4].b2 Bf | 
[V:2] [M:2/4]DF3 & D4 | 
[V:1] z2 B^A z2 cg | 
[V:2] F4E4 & F2<C2 EG3 | 
[V:1] z2 c^B z2 [Bd]^b | 
[V:2] G4F4 & G2<D2 FA3 | 
[V:1] z2 [ce]c' z2 ^bd' | 
[V:2] E2<G2 FG3 & E4D4 | 
[V:1] z2 ge' z2 [fd']g | 
[V:2] E2<G2 DG3 & C4D4 | 
[V:1] z2 [eg]e' z2 [fc']f' | 
[V:2] E2<G2 CF3 & C4A,4 | 
[V:1] z2 [g^b]g'd4- & z4^AD3 | 
[V:2] G,4z2[K:clef=bass] ^^F,^A, & D2<G2z4 | 
[V:1] d4c4 & =B2<D2 ^^FD3 | 
[V:2] z2 G,B, z2 ^A,,C, | 
[V:1] B4^^F4 & G2<D2 EC3 | 
[V:2] z2 B,,D, z2 C,E, | 
[V:1] [G4B4][E4G4] & ^E2<B,2 B,G,3 | 
[V:2] z2 ^^C,^E, z2 ^^C,,C, | 
[V:1] [D4^^F4][D4F4] & ^A,2<^^F,2 A,F,3 | 
[V:2] z2 D,,D, z2 D,,D, | 
[V:1] G4[^^F4^A4] & D2<G,2 D^A,3 | 
[V:2] z2 G,,D, z2 D,,D, | 
[V:1] [G4B4][^^F4^A4] & D2<B,2 D^A,3 | 
[V:2] z2 G,,,G,, z2 D,,D, | 
[V:1] [G4B4][^A4c4] & D2<B,2 FC3 | 
[V:2] z2 G,,G, z2 F,,F, | 
[V:1] [B4d4][^A4c4] & F2<D2 FC3 | 
[V:2] z2 B,,,B,, z2 F,,F, | 
[V:1] [B4d4][^^c4^e4] & F2<D2 ^A^E3 | 
[V:2] z2 B,,B, z2 ^A,,^A, | 
[V:1] [d4f4][^^c4^e4] & ^A2<F2 A^E3 | 
[V:2] z2 D,,D, z2 ^A,,A, | 
[V:1] [d4f4][^e4g4] & ^A2<F2 cG3 | 
[V:2] z2 D,D z2 C,C | 
[V:1] [f4^a4][f4b4] & c2<^A2 dB3 | 
[V:2] z2 F,,F, z2 FF, | 
[V:1] [f4g4][f4^a4] & B2<G2 c^A3 | 
[V:2] z2 F,,F, z2 FF, | 
[V:1] [f4b4][^a4c'4] & d2<B2 fc3 | 
[V:2] z2 F,,F, z2 FF, | 
[V:1] [b4d'4][b4e'4] & f2<d2 ge3 | 
[V:2] z2 B,,,B,, z2 B,B,, | 
[V:1] [b4c'4][b4e'4] & e2<c2 fd3 | 
[V:2] z2 B,,,B,, z2 B,B,, | 
[V:1] [b4e'4][d'4f'4] & g2<e2 bf3 | 
[V:2] z2 B,,,B,, z2 B,B,, | 
[V:1] [b4d'4][b4e'4] & f2<d2 ge3 | 
[V:2] z2 =A,,A, z2 G,G,, | 
[V:1] [d'4f'4][e'4g'4] & b2<a2 bg3 | 
[V:2] z2 F,,F, z2 E,E,, | 
[V:1] [f'4a'4][e'4=g'4^a'4] & =c'2<a2 e'^a3 | 
[V:2] z2 D,,D, z2 C,C,, | 
[V:1] b'4b'4 & d'2<b2 g'b3 | 
[V:2] z2 B,,,B,, z2 ^E,^E,, | 
[V:1] b'4b'4 & =a'2<b2 f'b3 | 
[V:2] z2 F,,F, z2 D,D,, | 
[V:1] b'4b'4 & d'2<b2 g'b3 | 
[V:2] z2 B,,,B,, z2 ^E,^E,, | 
[V:1] b'4b'4 & a'2<b2 ^e'b3 | 
[V:2] z2 F,,F, z2 ^^C,^^C,, | 
[V:1] b'4g'b'3 & f'2<b2g'4 | 
[V:2] z2 D,,D, z2 =E,,=E,- | 
[V:1] b'4e'4 & b'2<f'2 e'g'3 | 
[V:2] E,2D,,D,- D,2C,,C,- | 
[V:1] g'4c'4 & g'2<d'2 c'e'3 | 
[V:2] C,2B,,,B,,- B,,2A,,,A,,- | 
[V:1] e'2<b2[d'4f'4] & e'4ba3 | 
[V:2] A,,2G,,,G,,- G,,2F,,,F,,- | 
[V:1] e'4z2 GB & b2<g2z4 | 
[V:2] z4G,B,3 & F,,2E,,,E,,E,4 | 
[V:1] z2 Bf z2 [ef]^a | 
[V:2] B,2<F,2 ^A,E3 & D,4C,2 z2 | 
[V:1] z4c'e'3 & z2 ^abc'4 | 
[V:2] D2<B,2-z4 & B,,2 z2 B,2=A,,=A,- | 
[V:1] e'2<b2 b=a'3 & e'4=a4 | 
[V:2] A,2G,,G,- G,2F,,F,- | 
[V:1] g'2<e'2 c'e'3 & [g4b4][e4a4] | 
[V:2] F,2E,,E, z2 A,A,, | 
[V:1] g2<e'2 fd'3 & e4d4 | 
[V:2] z2 B,,B, z2 B,,B,,, | 
[V:1] [M:3/4]z4z4[fa]g.a[gb] & [=d4^e4g4b4=d'4-]d'2.c'.b ce[cf][ce] | 
[V:2] [K:clef=treble][M:3/4]z2 .G.A .B.c=d2 [FA][GB].[FA].[CEG] & z2 [B,2=D2^E2] z2 [E2G2]z4 | 
[V:1] ^b2c'2- c'2=ba gf.g.a & z4z2 f2 B[AB][GB][Ae] | 
[V:2] z2 F/^E/F/G/ A/G/A/B/ =c2 [=EG][DF].E.[CE] & z2 [A,2C2] z2 [D2F2]z4 | 
[V:1] bebag4(5:4:5f//g//f//^e//f// g//a//b//c'// [=d2=f2b2=d'2] | 
[V:2] [G,2E2][C2E2A2] [B,2E2G2][B,2E2^A2] [B,DB][B,=D^EG][K:clef=bass] [G,,,2G,,2] | 
[V:1]  [K:C] [d/f/b/d'/]b/g/f/ d/B/G/F/ (3D/B,/G,/ z z G,//B,//D//F// z d//f//g//b// [dfd'][cec'] | 
[V:2]  [K:C] [=G,,,4-=D,,4-=F,,4=G,,4][G,,,D,,F,,G,,] (3F,/D,/B,,/ G,,//B,,//D,//F,// z[K:clef=treble] G//B//d//f// z[K:clef=bass] [G,,,G,,][C,,C,] | 
[V:1] (3:2:9c'/g/e/ c/G/E/ C/G,/E,/ z z/ z/ z/ (3c//e//g// [cec'][Beb] [B2e2b2][b2e'2-b'2-] | 
[V:2] z3 (3:2:12C,/G,,/E,,/ C,,//E,,//G,,// C,//E,//G,// C//E//G// z/ [G,,,G,,][^G,,,^G,,] [G,,,2E,,2G,,2][G,,,2E,,2G,,2]- & [C,,2E,,2G,,2C,2] z2z4z4 | 
[V:1]  [K:E] [b/e'/b'/]e'/d'/e'/d'/e'/b'/a'/ g'/d'/e'/d'/ (3:2:18e'/c'/d'/b/c'/a/ b/g/a/f/g/e/ f/d/e/c/d/B/ | 
[V:2]  [K:E] [G,,,E,,G,,][G,,B,,E,] z [C,E,A,] z [B,,E,G,][K:clef=treble] (3:2:18g/e/f/d/e/c/ d/B/c/A/B/G/ A/F/G/E/F/D/[K:clef=bass] | 
[V:1] (3:2:36c/A/B/G/A/F/ G/E/F/D/E/C/[K:clef=bass] D/B,/C/A,/B,/G,/ A,/F,/G,/E,/F,/D,/ E,/C,/D,/B,,/C,/^A,,/ B,,/=A,,/B,,/G,,/B,,/F,,/ | 
[V:2] (3:2:33E/C/D/B,/C/A,/ B,/G,/A,/F,/G,/E,/ F,/D,/E,/C,/D,/B,,/ C,/A,,/B,,/G,,/A,,/F,,/ G,,/E,,/F,,/D,,/E,,/C,,/ B,,,C,,D,, | 
[V:1] (3:2:18E,,/B,,/G,,/E,/B,,/G,/ E,/B,/G,/E/B,/G/[K:clef=treble] !fermata!E/B/G/e/B/g/ (5:4:5e/b/g/e'/b/ g'2e'2 | 
[V:2] E,,,4!fermata!z4z4 | 
[V:1] [M:2/4]z4c'e'3 & b2^b2c'4 | 
[V:2] [M:2/4]z4z2[K:clef=treble] Ae | 
[V:1] e'4a4 & e'2<=b2 ab3 | 
[V:2] z2 eG z2 Fd | 
[V:1] b2<g2z4 & b4z2 c'e' | 
[V:2] z4ce3 & z2 eEA4 | 
[V:1] z2 e'b z2 b[d'f'] | 
[V:2] e2<B2 AB3 & G4F4 | 
[V:1] z4fb3 & z2 [e'g']bf4 | 
[V:2] B2<G2z4 & E4z2 dB | 
[V:1] g2<b2 ab3 & g4a4 | 
[V:2] z2 eB z2 fB | 
[V:1] b2<e'2z4 & b4z2 bf | 
[V:2] z4FB3 & z2 gBD4 | 
[V:1] z2 bg z2 ba | 
[V:2] G2<B2 AB3 & E4F4 | 
[V:1] z4fb3 & z2 bg[B4d4] | 
[V:2] B2<e2z4 & G4z2 [FA]B, | 
[V:1] g2<b2 ab3 & [B4e4][B4f4] | 
[V:2] z2 [EG]B, z2 [DF]B,[K:clef=bass] | 
[V:1] z4[B,4D4F4] | 
[V:2] z4[B,,4F,4A,4] | 
[V:1] z4[B,4E4G4] | 
[V:2] z4[B,,4E,4G,4] | 
[V:1] z4[^B,4D4F4A4] | 
[V:2] z4[^B,,4D,4F,4A,4] | 
[V:1] [C4E4G4][C4-^E4c4-] | 
[V:2] [C,4E,4G,4][A,,4-C,4-^E,4] | 
[V:1] [C4F4c4][B,4=D4^E4G4B4] | 
[V:2] [C,4F,4][=D,4^E,4G,4] & A,,8- | 
[V:1] [A,4C4F4A4][G,4B,4=D4^E4G4] | 
[V:2] [C,4F,4][B,,4=D,4^E,4] & A,,8- | 
[V:1] [A,4C4F4A4][F,4C4] | 
[V:2] [A,,4C,4F,4][^A,,,4^A,,4] | 
[V:1] [E,4G,4B,4E4][F,4A,4D4] | 
[V:2] [B,,,4B,,4][=C,,4=C,4] | 
[V:1] [G,4B,4E4][F,4=C4D4F4] | 
[V:2] [B,,,4B,,4][A,,,4A,,4] | 
[V:1] [B,4E4G4][^A,4E4c4-] | 
[V:2] G,,4F,,3G,, & G,,,4F,,,4 | 
[V:1] c4B4 & F8 | 
[V:2] =A,,4B,,4 & B,,,8 | 
[V:1] G4A,A3 & G2<B,2A,4 | 
[V:2] z2 E,,E, z2 =C,E,, | 
[V:1] F4B,E3 & F2<[A,2=C2]G,4 | 
[V:2] z2 E,,D, z2 E,E,, | 
[V:1] D4G,E3 | 
[V:2] z2< [F,2A,2]E,4 & z2 E,,=C, z2 B,,E,, | 
[V:1] =C4B,4 | 
[V:2] A,2<E,2 A,F,3 & z2 E,,C, z2 D,E,, | 
[V:1] C4B,4 & C2<G,2 B,G,3 | 
[V:2] z2 E,,E, z2 E,E,, | 
[V:1] =C4B,4 | 
[V:2] A,2<F,2 A,F,3 & z2 E,,D, z2 D,E,, | 
[V:1] C4B,4 & C2<G,2 B,G,3 | 
[V:2] z2 E,,E, z2 D,E, | 
[V:1] A4G4 & A2<B,2 GB,3 | 
[V:2] z2 D,E, z2 DE | 
[V:1] c4B4 & c2<G2 BG3 | 
[V:2] z2 E,E z2 DE | 
[V:1] a4g4 & a2<B2 gB3 | 
[V:2] z2[K:clef=treble] DE z2 de | 
[V:1] c'4b4 & c'2<g2 bg3 | 
[V:2] z2 Ee z2 de | 
[V:1] c'4b4 & c'2<g2 bg3 | 
[V:2] z2 d'e' z2 g'b' | 
[V:1] z2[K:clef=bass][E,6G,6B,6]- | 
[V:2] z2[K:clef=bass][E,,6G,,6B,,6]- | 
[V:1] !fermata![E,4G,4B,4] |]  
[V:2] !fermata![E,,4G,,4B,,4] |]  


